X: 308
T: Hallbosväng
C: Krok Johan Eriksson
O: Forsa, Hälsingland
Z: Transcribed to abcby Jon Magnusson 080623
R: Vals
M: 3/4
L: 1/8
K: Bb
d2 F=E F2|DF Bd f2|f2 =ef ge|f4 (3 fgf|e2 FG AB|cA FG Ac|BA Bc de|gf =ef d2|
d2 F=E F2|DF Bd f2|f2 =ef ge|f4 fg|a2 A=B ^cd|=e2 A=B ^cd|=e4 f2|d6:|
|:[K: F] cA FA cf|ag fe dc|Bb fd BF|D3 fed|c2 bbbb|b2 a2 g2|(3gag f2 d2|c3 dcB|
AF Ac fg|ag fe dc|Bb fd BF|D3 fed|c2 bb b2|c2 aa a2|ag bg ec|[1 f6:|[2 f3 gf_e|]
|:[K: Bb]d2 DF Bd|f3 e d2|g3 f e2|Ac f2 a2|c'3 b a2|a3 g f2|f=e gf _ec|Bd Ac BG|
F/2G/2 F3 E D| D3 FBd|fe dc BA|G3 Beg|ba gf ed|gf ec AF|B6:|
(:musicend:)

Här är ett förslag på en [[!andrastämma]]:
(:music:)
